images/68262.svg

<?xml version="1.0" encoding="UTF-8"?>
<svg xmlns="http://www.w3.org/2000/svg" xmlns:xlink="http://www.w3.org/1999/xlink" width="300pt" height="300pt" viewBox="0 0 300 300" version="1.1">
<defs>
<g>
<symbol overflow="visible" id="glyph0-0">
<path style="stroke:none;" d="M 0.796875 2.828125 L 0.796875 -11.28125 L 8.796875 -11.28125 L 8.796875 2.828125 Z M 1.703125 1.9375 L 7.90625 1.9375 L 7.90625 -10.390625 L 1.703125 -10.390625 Z M 1.703125 1.9375 "/>
</symbol>
<symbol overflow="visible" id="glyph0-1">
<path style="stroke:none;" d="M 6.3125 -10.59375 C 5.164062 -10.59375 4.253906 -10.164062 3.578125 -9.3125 C 2.898438 -8.457031 2.5625 -7.296875 2.5625 -5.828125 C 2.5625 -4.359375 2.898438 -3.195312 3.578125 -2.34375 C 4.253906 -1.488281 5.164062 -1.0625 6.3125 -1.0625 C 7.457031 -1.0625 8.363281 -1.488281 9.03125 -2.34375 C 9.695312 -3.195312 10.03125 -4.359375 10.03125 -5.828125 C 10.03125 -7.296875 9.695312 -8.457031 9.03125 -9.3125 C 8.363281 -10.164062 7.457031 -10.59375 6.3125 -10.59375 Z M 6.3125 -11.875 C 7.945312 -11.875 9.253906 -11.328125 10.234375 -10.234375 C 11.210938 -9.140625 11.703125 -7.671875 11.703125 -5.828125 C 11.703125 -3.984375 11.210938 -2.507812 10.234375 -1.40625 C 9.253906 -0.3125 7.945312 0.234375 6.3125 0.234375 C 4.664062 0.234375 3.351562 -0.3125 2.375 -1.40625 C 1.394531 -2.507812 0.90625 -3.984375 0.90625 -5.828125 C 0.90625 -7.671875 1.394531 -9.140625 2.375 -10.234375 C 3.351562 -11.328125 4.664062 -11.875 6.3125 -11.875 Z M 6.3125 -11.875 "/>
</symbol>
</g>
</defs>
<g id="surface34733">
<rect x="0" y="0" width="300" height="300" style="fill:rgb(100%,100%,100%);fill-opacity:1;stroke:none;"/>
<path style="fill:none;stroke-width:1.2;stroke-linecap:butt;stroke-linejoin:miter;stroke:rgb(0%,0%,0%);stroke-opacity:1;stroke-miterlimit:10;" d="M 63.648438 214.832031 L 82.769531 215.183594 "/>
<path style="fill:none;stroke-width:1.2;stroke-linecap:butt;stroke-linejoin:miter;stroke:rgb(100%,0%,0%);stroke-opacity:1;stroke-miterlimit:10;" d="M 82.769531 215.183594 L 101.890625 215.535156 "/>
<path style="fill:none;stroke-width:1.2;stroke-linecap:butt;stroke-linejoin:miter;stroke:rgb(100%,0%,0%);stroke-opacity:1;stroke-miterlimit:10;" d="M 101.890625 215.535156 L 111.757812 199.152344 "/>
<path style="fill:none;stroke-width:1.2;stroke-linecap:butt;stroke-linejoin:miter;stroke:rgb(0%,0%,0%);stroke-opacity:1;stroke-miterlimit:10;" d="M 111.757812 199.152344 L 121.621094 182.769531 "/>
<path style=" stroke:none;fill-rule:nonzero;fill:rgb(100%,100%,100%);fill-opacity:1;" d="M 95.890625 206.035156 L 108.890625 206.035156 L 108.890625 225.035156 L 95.890625 225.035156 Z M 95.890625 206.035156 "/>
<g style="fill:rgb(100%,0%,0%);fill-opacity:1;">
  <use xlink:href="#glyph0-1" x="95.890625" y="220.886719"/>
</g>
<path style="fill:none;stroke-width:1.2;stroke-linecap:butt;stroke-linejoin:miter;stroke:rgb(0%,0%,0%);stroke-opacity:1;stroke-miterlimit:10;" d="M 121.621094 182.769531 L 103.109375 149.296875 "/>
<path style="fill:none;stroke-width:1.2;stroke-linecap:butt;stroke-linejoin:miter;stroke:rgb(0%,0%,0%);stroke-opacity:1;stroke-miterlimit:10;" d="M 127.648438 175.066406 L 112.835938 148.285156 "/>
<path style="fill:none;stroke-width:1.2;stroke-linecap:butt;stroke-linejoin:miter;stroke:rgb(0%,0%,0%);stroke-opacity:1;stroke-miterlimit:10;" d="M 159.867188 183.472656 L 121.621094 182.769531 "/>
<path style="fill:none;stroke-width:1.2;stroke-linecap:butt;stroke-linejoin:miter;stroke:rgb(0%,0%,0%);stroke-opacity:1;stroke-miterlimit:10;" d="M 103.109375 149.296875 L 122.84375 116.527344 "/>
<path style="fill:none;stroke-width:1.2;stroke-linecap:butt;stroke-linejoin:miter;stroke:rgb(0%,0%,0%);stroke-opacity:1;stroke-miterlimit:10;" d="M 126.78125 114.351562 L 117.523438 97.613281 "/>
<path style="fill:none;stroke-width:1.2;stroke-linecap:butt;stroke-linejoin:miter;stroke:rgb(100%,0%,0%);stroke-opacity:1;stroke-miterlimit:10;" d="M 117.523438 97.613281 L 108.269531 80.878906 "/>
<path style="fill:none;stroke-width:1.2;stroke-linecap:butt;stroke-linejoin:miter;stroke:rgb(0%,0%,0%);stroke-opacity:1;stroke-miterlimit:10;" d="M 118.90625 118.707031 L 109.648438 101.96875 "/>
<path style="fill:none;stroke-width:1.2;stroke-linecap:butt;stroke-linejoin:miter;stroke:rgb(100%,0%,0%);stroke-opacity:1;stroke-miterlimit:10;" d="M 109.648438 101.96875 L 100.394531 85.234375 "/>
<path style="fill:none;stroke-width:1.2;stroke-linecap:butt;stroke-linejoin:miter;stroke:rgb(0%,0%,0%);stroke-opacity:1;stroke-miterlimit:10;" d="M 122.84375 116.527344 L 161.085938 117.230469 "/>
<path style=" stroke:none;fill-rule:nonzero;fill:rgb(100%,100%,100%);fill-opacity:1;" d="M 91.332031 73.554688 L 104.332031 73.554688 L 104.332031 92.554688 L 91.332031 92.554688 Z M 91.332031 73.554688 "/>
<g style="fill:rgb(100%,0%,0%);fill-opacity:1;">
  <use xlink:href="#glyph0-1" x="91.332031" y="88.40625"/>
</g>
<path style="fill:none;stroke-width:1.2;stroke-linecap:butt;stroke-linejoin:miter;stroke:rgb(0%,0%,0%);stroke-opacity:1;stroke-miterlimit:10;" d="M 161.085938 117.230469 L 179.597656 150.703125 "/>
<path style="fill:none;stroke-width:1.2;stroke-linecap:butt;stroke-linejoin:miter;stroke:rgb(0%,0%,0%);stroke-opacity:1;stroke-miterlimit:10;" d="M 155.0625 124.933594 L 169.871094 151.714844 "/>
<path style="fill:none;stroke-width:1.2;stroke-linecap:butt;stroke-linejoin:miter;stroke:rgb(0%,0%,0%);stroke-opacity:1;stroke-miterlimit:10;" d="M 179.597656 150.703125 L 159.867188 183.472656 "/>
<path style="fill:none;stroke-width:1.2;stroke-linecap:butt;stroke-linejoin:miter;stroke:rgb(0%,0%,0%);stroke-opacity:1;stroke-miterlimit:10;" d="M 179.597656 150.703125 L 198.71875 151.058594 "/>
<path style="fill:none;stroke-width:1.2;stroke-linecap:butt;stroke-linejoin:miter;stroke:rgb(100%,0%,0%);stroke-opacity:1;stroke-miterlimit:10;" d="M 198.71875 151.058594 L 217.839844 151.410156 "/>
<path style="fill:none;stroke-width:1.2;stroke-linecap:butt;stroke-linejoin:miter;stroke:rgb(0%,0%,0%);stroke-opacity:1;stroke-miterlimit:10;" d="M 155.929688 185.648438 L 165.183594 202.386719 "/>
<path style="fill:none;stroke-width:1.2;stroke-linecap:butt;stroke-linejoin:miter;stroke:rgb(100%,0%,0%);stroke-opacity:1;stroke-miterlimit:10;" d="M 165.183594 202.386719 L 174.441406 219.121094 "/>
<path style="fill:none;stroke-width:1.2;stroke-linecap:butt;stroke-linejoin:miter;stroke:rgb(0%,0%,0%);stroke-opacity:1;stroke-miterlimit:10;" d="M 163.804688 181.292969 L 173.058594 198.03125 "/>
<path style="fill:none;stroke-width:1.2;stroke-linecap:butt;stroke-linejoin:miter;stroke:rgb(100%,0%,0%);stroke-opacity:1;stroke-miterlimit:10;" d="M 173.058594 198.03125 L 182.316406 214.765625 "/>
<path style=" stroke:none;fill-rule:nonzero;fill:rgb(100%,100%,100%);fill-opacity:1;" d="M 172.378906 207.445312 L 185.378906 207.445312 L 185.378906 226.445312 L 172.378906 226.445312 Z M 172.378906 207.445312 "/>
<g style="fill:rgb(100%,0%,0%);fill-opacity:1;">
  <use xlink:href="#glyph0-1" x="172.378906" y="222.296875"/>
</g>
<path style="fill:none;stroke-width:1.2;stroke-linecap:butt;stroke-linejoin:miter;stroke:rgb(100%,0%,0%);stroke-opacity:1;stroke-miterlimit:10;" d="M 217.839844 151.410156 L 227.097656 168.144531 "/>
<path style="fill:none;stroke-width:1.2;stroke-linecap:butt;stroke-linejoin:miter;stroke:rgb(0%,0%,0%);stroke-opacity:1;stroke-miterlimit:10;" d="M 227.097656 168.144531 L 236.351562 184.882812 "/>
<path style=" stroke:none;fill-rule:nonzero;fill:rgb(100%,100%,100%);fill-opacity:1;" d="M 211.839844 141.910156 L 224.839844 141.910156 L 224.839844 160.910156 L 211.839844 160.910156 Z M 211.839844 141.910156 "/>
<g style="fill:rgb(100%,0%,0%);fill-opacity:1;">
  <use xlink:href="#glyph0-1" x="211.839844" y="156.761719"/>
</g>
</g>
</svg>

<svg xmlns="http://www.w3.org/2000/svg" xmlns:xlink="http://www.w3.org/1999/xlink" width="300pt" height="300pt" viewBox="0 0 300 300"><defs><symbol overflow="visible"><path d="M.797 2.828v-14.11h8V2.83zm.906-.89h6.203v-12.33H1.703zm0 0"/></symbol><symbol overflow="visible" id="a"><path d="M6.313-10.594c-1.15 0-2.06.43-2.735 1.28-.68.857-1.015 2.017-1.015 3.486 0 1.47.335 2.633 1.015 3.484.676.856 1.586 1.28 2.735 1.28 1.144.002 2.05-.424 2.718-1.28.665-.85 1-2.015 1-3.484 0-1.47-.335-2.63-1-3.484-.667-.852-1.573-1.282-2.717-1.282zm0-1.28c1.632 0 2.94.546 3.92 1.64.978 1.093 1.47 2.562 1.47 4.406 0 1.844-.492 3.32-1.47 4.422-.98 1.093-2.288 1.64-3.92 1.64-1.65 0-2.96-.546-3.938-1.64-.98-1.102-1.47-2.578-1.47-4.422 0-1.844.49-3.313 1.47-4.406.977-1.094 2.29-1.64 3.938-1.64zm0 0"/></symbol></defs><g><path fill="#fff" d="M0 0h300v300H0z"/><path d="M63.648 214.832l19.122.352" stroke-width="1.2" stroke="#000" stroke-miterlimit="10" fill="none"/><path d="M82.77 215.184l19.12.35M101.89 215.535l9.868-16.383" stroke-width="1.2" stroke="#f00" stroke-miterlimit="10" fill="none"/><path d="M111.758 199.152l9.863-16.382" stroke-width="1.2" stroke="#000" stroke-miterlimit="10" fill="none"/><path d="M95.89 206.035h13v19h-13zm0 0" fill="#fff"/><use xlink:href="#a" x="95.891" y="220.887" fill="#f00"/><path d="M121.62 182.77l-18.51-33.473M127.648 175.066l-14.812-26.78M159.867 183.473l-38.246-.703M103.11 149.297l19.734-32.77M126.78 114.352l-9.257-16.74" stroke-width="1.2" stroke="#000" stroke-miterlimit="10" fill="none"/><path d="M117.523 97.613L108.27 80.88" stroke-width="1.2" stroke="#f00" stroke-miterlimit="10" fill="none"/><path d="M118.906 118.707l-9.258-16.738" stroke-width="1.2" stroke="#000" stroke-miterlimit="10" fill="none"/><path d="M109.648 101.97l-9.253-16.736" stroke-width="1.2" stroke="#f00" stroke-miterlimit="10" fill="none"/><path d="M122.844 116.527l38.242.703" stroke-width="1.2" stroke="#000" stroke-miterlimit="10" fill="none"/><path d="M91.332 73.555h13v19h-13zm0 0" fill="#fff"/><use xlink:href="#a" x="91.332" y="88.406" fill="#f00"/><path d="M161.086 117.23l18.512 33.473M155.063 124.934l14.808 26.78M179.598 150.703l-19.73 32.77M179.598 150.703l19.12.356" stroke-width="1.2" stroke="#000" stroke-miterlimit="10" fill="none"/><path d="M198.72 151.06l19.12.35" stroke-width="1.2" stroke="#f00" stroke-miterlimit="10" fill="none"/><path d="M155.93 185.648l9.254 16.74" stroke-width="1.2" stroke="#000" stroke-miterlimit="10" fill="none"/><path d="M165.184 202.387l9.257 16.734" stroke-width="1.2" stroke="#f00" stroke-miterlimit="10" fill="none"/><path d="M163.805 181.293l9.254 16.738" stroke-width="1.2" stroke="#000" stroke-miterlimit="10" fill="none"/><path d="M173.06 198.03l9.256 16.736" stroke-width="1.2" stroke="#f00" stroke-miterlimit="10" fill="none"/><path d="M172.38 207.445h13v19h-13zm0 0" fill="#fff"/><use xlink:href="#a" x="172.379" y="222.297" fill="#f00"/><path d="M217.84 151.41l9.258 16.735" stroke-width="1.2" stroke="#f00" stroke-miterlimit="10" fill="none"/><path d="M227.098 168.145l9.254 16.738" stroke-width="1.2" stroke="#000" stroke-miterlimit="10" fill="none"/><path d="M211.84 141.91h13v19h-13zm0 0" fill="#fff"/><use xlink:href="#a" x="211.84" y="156.762" fill="#f00"/></g></svg>
